icons/ArrowSplitUpLeft.svg

<svg width="24" height="24" viewBox="0 0 24 24" fill="none" xmlns="http://www.w3.org/2000/svg">
<path fill-rule="evenodd" clip-rule="evenodd" d="M8.99999,2.25c0.41421,-0.00001 0.75001,0.33578 0.75001,0.74999c0,0.41421 -0.33578,0.75 -0.74999,0.75001l-3.18974,0.00004l6.25573,6.25566v0.0001c1.0777,1.078 1.6833,2.5398 1.6836,4.0641v0.0001l0.0004,6.93c0,0.4142 -0.3357,0.75 -0.75,0.75c-0.4142,0 -0.75,-0.3357 -0.75,-0.75l-0.0004,-6.9298v-0.0001c-0.0002,-1.1266 -0.4478,-2.207 -1.2444,-3.0038l-6.25543,-6.25545l0.00023,3.1891c0.00003,0.41421 -0.33573,0.75002 -0.74994,0.75005c-0.41422,0.00003 -0.75003,-0.33573 -0.75006,-0.74995l-0.00037,-4.99993c-0.00001,-0.19892 0.079,-0.3897 0.21965,-0.53037c0.14065,-0.14066 0.33142,-0.21969 0.53034,-0.21969zM15.4993,8.75009c0.4142,0 0.75,0.33579 0.75,0.75c0,0.41422 -0.3358,0.75001 -0.75,0.75001c-0.4142,0 -0.75,-0.33579 -0.75,-0.75001c0,-0.41421 0.3358,-0.75 0.75,-0.75zM19.9993,5.75009c-0.4142,0 -0.75,-0.33578 -0.75,-0.75c0,-0.41421 0.3358,-0.75 0.75,-0.75c0.4142,0 0.75,0.33579 0.75,0.75c0,0.41422 -0.3358,0.75 -0.75,0.75zM17.7493,6.50009c0.4142,0 0.75,0.33579 0.75,0.75c0,0.41422 -0.3358,0.75 -0.75,0.75c-0.4142,0 -0.75,-0.33578 -0.75,-0.75c0,-0.41421 0.3358,-0.75 0.75,-0.75z" fill="#002B51"/>
</svg>

<svg width="24" height="24" viewBox="0 0 24 24" fill="none" xmlns="http://www.w3.org/2000/svg">
<path fill-rule="evenodd" clip-rule="evenodd" d="M8.99999 2.25C9.4142 2.24999 9.75 2.58578 9.75 2.99999C9.75 3.4142 9.41422 3.74999 9.00001 3.75L5.81027 3.75004L12.066 10.0057L12.066 10.0058C13.1437 11.0838 13.7493 12.5456 13.7496 14.0699V14.07L13.75 21C13.75 21.4142 13.4143 21.75 13 21.75C12.5858 21.75 12.25 21.4143 12.25 21L12.2496 14.0702V14.0701C12.2494 12.9435 11.8018 11.8631 11.0052 11.0663L4.74977 4.81085L4.75 7.99995C4.75003 8.41416 4.41427 8.74997 4.00006 8.75C3.58584 8.75003 3.25003 8.41427 3.25 8.00005L3.24963 3.00012C3.24962 2.8012 3.32863 2.61042 3.46928 2.46975C3.60993 2.32909 3.8007 2.25006 3.99962 2.25006L8.99999 2.25ZM15.4993 8.75009C15.9135 8.75009 16.2493 9.08588 16.2493 9.50009C16.2493 9.91431 15.9135 10.2501 15.4993 10.2501C15.0851 10.2501 14.7493 9.91431 14.7493 9.50009C14.7493 9.08588 15.0851 8.75009 15.4993 8.75009ZM20.7493 5.00009C20.7493 4.58588 20.4135 4.25009 19.9993 4.25009C19.5851 4.25009 19.2493 4.58588 19.2493 5.00009C19.2493 5.41431 19.5851 5.75009 19.9993 5.75009C20.4135 5.75009 20.7493 5.41431 20.7493 5.00009ZM17.7493 6.50009C18.1635 6.50009 18.4993 6.83588 18.4993 7.25009C18.4993 7.66431 18.1635 8.00009 17.7493 8.00009C17.3351 8.00009 16.9993 7.66431 16.9993 7.25009C16.9993 6.83588 17.3351 6.50009 17.7493 6.50009Z" fill="#002B51"/>
</svg>
